X:0765
T:Mrs. Morthland's Reel.
M:C|
L:1/8
Q:1/2=104
I: :: ||
Z:Jack Campin * www.campin.me.uk * 2009
K:C
g|{f}e2dc GBce|fdec  fdec     |e2dc GAce|egde  c/c/c c:|
f|   ecce fddf|ecge (B/c/d) BG|ecce fddf|ecdB Tc2    cf|
     ecce fddf|ecge (B/c/d) BG|ecce fdgf|ecdB  c2    c|]

